X:14134
T:Reel des Ouvriers
M:4/4
K:G
g2fg dgBd|gabg agef|g2fg dgBd|cBAG FADf|!g2fg dgBd|gabg agef|gfga gfed|egfag2:|!G3Bd2BG|ABcd (3cdc A2|Bdgd BgBd|cBAG FA D2|!G3Bd2BG|ABcd (3cdc A2|Bdgd BgBd|cAFAG2:||
